flaticon/seo-and-analytics/worldwide-11.svg

<svg xmlns="http://www.w3.org/2000/svg" width="32" height="32" viewBox="0 0 24 24">
    <path d="M 23.675781 17.695312 L 23.109375 17.574219 C 22.828125 17.535156 22.625 17.332031 22.503906 17.089844 C 22.382812 16.808594 22.425781 16.566406 22.585938 16.324219 L 22.949219 15.839844 C 23.070312 15.675781 23.03125 15.433594 22.910156 15.3125 L 22.890625 15.292969 C 23.242188 14.164062 23.433594 12.980469 23.433594 11.796875 C 23.433594 5.472656 18.40625 0.308594 12.132812 0.0898438 L 12.121094 0.0820312 L 11.878906 0.0820312 C 11.839844 0.0820312 11.757812 0.0820312 11.71875 0.0820312 C 11.675781 0.0820312 11.597656 0.0820312 11.554688 0.0820312 L 11.3125 0.0820312 L 11.300781 0.0898438 C 5.027344 0.308594 0 5.472656 0 11.796875 C 0 14.753906 1.097656 17.453125 2.90625 19.515625 C 2.917969 19.542969 2.929688 19.570312 2.949219 19.597656 C 2.988281 19.652344 3.035156 19.691406 3.085938 19.71875 C 5.140625 21.957031 8.054688 23.394531 11.300781 23.507812 L 11.3125 23.515625 L 11.554688 23.515625 C 11.597656 23.515625 11.675781 23.515625 11.71875 23.515625 C 12.957031 23.515625 14.195312 23.304688 15.40625 22.886719 C 15.546875 22.957031 15.707031 22.96875 15.839844 22.867188 L 16.109375 22.667969 C 16.125 22.667969 16.144531 22.667969 16.160156 22.667969 C 16.394531 22.550781 16.628906 22.46875 16.828125 22.355469 C 16.917969 22.359375 17.007812 22.382812 17.089844 22.425781 C 17.332031 22.546875 17.535156 22.746094 17.574219 23.03125 L 17.695312 23.597656 C 17.738281 23.796875 17.898438 23.917969 18.101562 23.917969 L 19.230469 23.917969 C 19.433594 23.917969 19.597656 23.757812 19.796875 23.554688 L 19.878906 23.109375 C 19.917969 22.828125 20.121094 22.625 20.363281 22.503906 C 20.605469 22.382812 20.890625 22.425781 21.132812 22.585938 L 21.496094 22.828125 C 21.65625 22.949219 21.859375 22.910156 22.019531 22.789062 L 22.828125 21.980469 C 22.949219 21.816406 22.988281 21.617188 22.867188 21.453125 L 22.546875 20.96875 C 22.382812 20.726562 22.34375 20.445312 22.464844 20.203125 C 22.585938 19.917969 22.789062 19.757812 23.070312 19.71875 L 23.675781 19.636719 C 23.839844 19.597656 24 19.433594 24 19.230469 L 24 18.101562 C 24 17.898438 23.878906 17.738281 23.675781 17.695312 Z M 22.140625 14.546875 L 22.101562 14.503906 C 21.9375 14.382812 21.738281 14.34375 21.574219 14.464844 L 21.089844 14.789062 C 20.847656 14.949219 20.566406 14.988281 20.324219 14.867188 C 20.21875 14.824219 20.132812 14.769531 20.0625 14.703125 C 19.960938 14.59375 19.902344 14.460938 19.878906 14.304688 L 19.796875 13.695312 C 19.777344 13.617188 19.730469 13.539062 19.660156 13.480469 C 19.585938 13.394531 19.476562 13.332031 19.355469 13.332031 L 18.222656 13.332031 C 18.019531 13.332031 17.859375 13.453125 17.816406 13.65625 L 17.65625 14.425781 C 17.617188 14.707031 17.414062 14.910156 17.171875 15.03125 C 16.890625 15.109375 16.648438 15.109375 16.402344 14.949219 L 15.757812 14.503906 C 15.597656 14.382812 15.355469 14.425781 15.230469 14.546875 L 14.425781 15.351562 C 14.304688 15.476562 14.261719 15.71875 14.382812 15.878906 L 14.746094 16.363281 C 14.910156 16.605469 14.949219 16.890625 14.828125 17.132812 C 14.707031 17.375 14.503906 17.574219 14.222656 17.617188 L 13.65625 17.738281 C 13.453125 17.777344 13.332031 17.9375 13.332031 18.140625 L 13.332031 19.273438 C 13.332031 19.402344 13.382812 19.511719 13.46875 19.589844 C 13.527344 19.652344 13.601562 19.699219 13.695312 19.71875 L 14.304688 19.796875 C 14.460938 19.820312 14.589844 19.890625 14.699219 19.992188 C 14.765625 20.066406 14.824219 20.152344 14.867188 20.242188 C 14.988281 20.484375 14.949219 20.765625 14.789062 21.011719 L 14.464844 21.496094 C 14.34375 21.65625 14.382812 21.898438 14.503906 22.019531 L 14.746094 22.261719 C 13.902344 22.507812 13.027344 22.664062 12.121094 22.699219 L 12.121094 12.203125 L 22.816406 12.203125 C 22.777344 13.074219 22.625 13.960938 22.382812 14.789062 Z M 0.816406 12.203125 L 5.660156 12.203125 C 5.707031 13.914062 6.042969 15.578125 6.636719 17.140625 C 5.496094 17.554688 4.398438 18.113281 3.359375 18.804688 C 1.847656 17.003906 0.90625 14.710938 0.816406 12.203125 Z M 3.5625 4.554688 C 4.574219 5.207031 5.648438 5.730469 6.769531 6.121094 C 6.089844 7.777344 5.710938 9.558594 5.660156 11.394531 L 0.816406 11.394531 C 0.910156 8.773438 1.933594 6.386719 3.5625 4.554688 Z M 22.808594 11.394531 L 17.773438 11.394531 C 17.722656 9.558594 17.34375 7.773438 16.664062 6.117188 C 17.792969 5.722656 18.871094 5.191406 19.882812 4.523438 C 21.558594 6.367188 22.636719 8.765625 22.808594 11.394531 Z M 11.3125 6.136719 C 10.148438 6.101562 8.996094 5.925781 7.878906 5.609375 C 8.699219 3.921875 9.855469 2.398438 11.3125 1.128906 Z M 11.3125 6.945312 L 11.3125 11.394531 L 6.46875 11.394531 C 6.519531 9.640625 6.886719 7.941406 7.539062 6.363281 C 8.757812 6.714844 10.023438 6.910156 11.3125 6.945312 Z M 12.121094 6.945312 C 13.414062 6.910156 14.679688 6.714844 15.894531 6.363281 C 16.546875 7.941406 16.914062 9.640625 16.964844 11.394531 L 12.121094 11.394531 Z M 12.121094 6.136719 L 12.121094 1.128906 C 13.578125 2.398438 14.738281 3.921875 15.554688 5.609375 C 14.441406 5.925781 13.285156 6.101562 12.121094 6.136719 Z M 16.332031 5.367188 C 15.5625 3.742188 14.496094 2.257812 13.171875 0.984375 C 15.527344 1.300781 17.644531 2.363281 19.296875 3.929688 C 18.363281 4.527344 17.367188 5.007812 16.332031 5.367188 Z M 7.101562 5.367188 C 6.070312 5.011719 5.082031 4.53125 4.15625 3.941406 C 5.785156 2.367188 7.90625 1.300781 10.261719 0.984375 C 8.9375 2.257812 7.875 3.742188 7.101562 5.367188 Z M 6.46875 12.203125 L 11.3125 12.203125 L 11.3125 16.25 C 9.976562 16.285156 8.664062 16.5 7.402344 16.882812 C 6.835938 15.40625 6.515625 13.828125 6.46875 12.203125 Z M 11.3125 17.058594 L 11.3125 22.464844 C 9.753906 21.105469 8.535156 19.457031 7.707031 17.625 C 8.871094 17.28125 10.082031 17.089844 11.3125 17.058594 Z M 3.90625 19.40625 C 4.863281 18.769531 5.878906 18.253906 6.941406 17.875 C 7.722656 19.636719 8.84375 21.246094 10.261719 22.609375 C 7.785156 22.277344 5.566406 21.113281 3.90625 19.40625 Z M 22.988281 18.988281 L 22.707031 19.03125 C 22.183594 19.109375 21.695312 19.433594 21.496094 19.960938 C 21.292969 20.445312 21.332031 21.050781 21.65625 21.496094 L 21.859375 21.695312 L 21.535156 22.019531 L 21.453125 21.980469 C 20.96875 21.617188 20.402344 21.574219 19.878906 21.777344 C 19.351562 22.019531 18.988281 22.464844 18.910156 23.03125 L 18.910156 23.109375 L 18.464844 23.109375 L 18.382812 22.828125 C 18.304688 22.304688 17.9375 21.859375 17.414062 21.65625 C 16.957031 21.480469 16.472656 21.519531 16.0625 21.742188 C 15.996094 21.777344 15.933594 21.8125 15.878906 21.859375 L 15.675781 22.019531 L 15.351562 21.695312 L 15.476562 21.496094 C 15.796875 21.050781 15.839844 20.484375 15.636719 19.960938 C 15.433594 19.476562 14.988281 19.109375 14.425781 19.03125 L 14.140625 18.988281 L 14.140625 18.546875 L 14.425781 18.464844 C 14.949219 18.382812 15.394531 18.019531 15.597656 17.496094 C 15.796875 16.96875 15.71875 16.402344 15.394531 15.960938 L 15.230469 15.757812 L 15.554688 15.433594 L 15.917969 15.675781 C 16.363281 16 16.929688 16.039062 17.414062 15.839844 C 17.9375 15.636719 18.261719 15.191406 18.382812 14.667969 L 18.464844 14.222656 L 18.910156 14.222656 L 18.949219 14.546875 C 19.03125 15.070312 19.351562 15.554688 19.878906 15.757812 C 20.363281 15.960938 20.96875 15.917969 21.414062 15.597656 L 21.617188 15.433594 L 21.9375 15.796875 L 21.777344 16 C 21.703125 16.09375 21.644531 16.195312 21.601562 16.308594 C 21.433594 16.691406 21.417969 17.125 21.574219 17.535156 C 21.777344 18.019531 22.222656 18.382812 22.746094 18.503906 L 22.988281 18.546875 Z M 22.988281 18.988281"/>
    <path d="M 18.585938 16.644531 C 17.453125 16.644531 16.566406 17.535156 16.566406 18.667969 C 16.566406 19.796875 17.453125 20.6875 18.585938 20.6875 C 19.71875 20.6875 20.605469 19.796875 20.605469 18.667969 C 20.605469 17.535156 19.71875 16.644531 18.585938 16.644531 Z M 18.585938 19.878906 C 17.898438 19.878906 17.375 19.355469 17.375 18.667969 C 17.375 17.980469 17.898438 17.453125 18.585938 17.453125 C 19.273438 17.453125 19.796875 17.980469 19.796875 18.667969 C 19.796875 19.355469 19.273438 19.878906 18.585938 19.878906 Z M 18.585938 19.878906"/>
</svg>

<svg xmlns="http://www.w3.org/2000/svg" width="32" height="32" viewBox="0 0 24 24">
    <path d="M23.676 17.695l-.567-.12c-.28-.04-.484-.243-.605-.485-.121-.281-.078-.524.082-.766l.363-.484a.426.426 0 0 0-.039-.527l-.02-.02c.352-1.129.544-2.313.544-3.496C23.434 5.473 18.406.309 12.133.09L12.12.082h-.808L11.3.09C5.027.309 0 5.473 0 11.797c0 2.957 1.098 5.656 2.906 7.719a.398.398 0 0 0 .18.203 11.685 11.685 0 0 0 8.215 3.789l.011.008H11.72c1.238 0 2.476-.211 3.687-.63.14.071.301.083.434-.019l.27-.199h.05c.235-.117.469-.2.668-.313.09.004.18.028.262.07.242.122.445.321.484.606l.121.567c.043.199.203.32.407.32h1.128c.204 0 .368-.16.567-.363l.082-.446c.039-.28.242-.484.484-.605s.528-.078.77.082l.363.242c.16.121.363.082.524-.039l.808-.809c.121-.164.16-.363.04-.527l-.321-.484c-.164-.242-.203-.524-.082-.766.12-.285.324-.445.605-.484l.606-.082A.433.433 0 0 0 24 19.23v-1.128a.397.397 0 0 0-.324-.407zm-1.535-3.148l-.04-.043c-.163-.121-.363-.16-.527-.04l-.484.325c-.242.16-.524.2-.766.078a.831.831 0 0 1-.262-.164.725.725 0 0 1-.183-.398l-.082-.61a.415.415 0 0 0-.137-.215.41.41 0 0 0-.305-.148h-1.132a.397.397 0 0 0-.407.324l-.16.77c-.039.281-.242.484-.484.605-.281.078-.524.078-.77-.082l-.644-.445c-.16-.121-.403-.078-.528.043l-.804.805c-.121.125-.164.367-.043.527l.363.484c.164.242.203.528.082.77-.121.242-.324.441-.605.484l-.567.121a.39.39 0 0 0-.324.403v1.132c0 .13.05.239.137.317.058.062.133.11.226.129l.61.078a.728.728 0 0 1 .394.195c.067.074.125.16.168.25.121.242.082.524-.078.77l-.324.484a.421.421 0 0 0 .039.524l.242.242c-.844.246-1.719.402-2.625.437V12.203h10.695c-.039.871-.191 1.758-.433 2.586zM.816 12.203H5.66c.047 1.711.383 3.375.977 4.938a15.41 15.41 0 0 0-3.278 1.664 10.846 10.846 0 0 1-2.543-6.602zm2.747-7.648A15.048 15.048 0 0 0 6.77 6.12a14.959 14.959 0 0 0-1.11 5.274H.816a10.856 10.856 0 0 1 2.747-6.84zm19.246 6.84h-5.036a14.98 14.98 0 0 0-1.109-5.278 14.532 14.532 0 0 0 3.219-1.594 11.307 11.307 0 0 1 2.926 6.872zM11.312 6.137a14.162 14.162 0 0 1-3.433-.528 14.124 14.124 0 0 1 3.434-4.48zm0 .808v4.45H6.47c.05-1.754.418-3.454 1.07-5.032 1.219.352 2.484.547 3.774.582zm.81 0a15.03 15.03 0 0 0 3.773-.582 14.229 14.229 0 0 1 1.07 5.032H12.12zm0-.808V1.129a14.068 14.068 0 0 1 3.433 4.48c-1.114.317-2.27.493-3.434.528zm4.21-.77a14.968 14.968 0 0 0-3.16-4.383 11.025 11.025 0 0 1 6.125 2.946 14.036 14.036 0 0 1-2.965 1.437zm-9.23 0a13.941 13.941 0 0 1-2.946-1.426A10.859 10.859 0 0 1 10.262.984a15.04 15.04 0 0 0-3.16 4.383zm-.633 6.836h4.843v4.047c-1.335.035-2.648.25-3.91.633a14.195 14.195 0 0 1-.933-4.68zm4.843 4.856v5.406a14.147 14.147 0 0 1-3.605-4.84 13.978 13.978 0 0 1 3.606-.566zm-7.406 2.347a13.925 13.925 0 0 1 3.035-1.531 15 15 0 0 0 3.32 4.734 10.881 10.881 0 0 1-6.355-3.203zm19.082-.418l-.281.043c-.523.078-1.012.403-1.21.93-.204.484-.165 1.09.16 1.535l.202.2-.324.324-.082-.04c-.484-.363-1.05-.406-1.574-.203-.527.243-.89.688-.969 1.254v.078h-.445l-.082-.28c-.078-.524-.445-.97-.969-1.173a1.601 1.601 0 0 0-1.535.203l-.203.16-.324-.324.125-.199c.32-.445.363-1.012.16-1.535a1.537 1.537 0 0 0-1.211-.93l-.285-.043v-.441l.285-.082a1.517 1.517 0 0 0 1.172-.969c.199-.527.12-1.094-.203-1.535l-.165-.203.325-.324.363.242a1.538 1.538 0 0 0 1.496.164c.523-.203.848-.649.969-1.172l.082-.445h.445l.04.324c.081.523.402 1.008.929 1.21.484.204 1.09.161 1.535-.16l.203-.163.32.363-.16.203a1.149 1.149 0 0 0-.175.309 1.606 1.606 0 0 0-.028 1.226c.203.485.649.848 1.172.969l.242.043zm0 0"/>
    <path d="M18.586 16.645a2 2 0 0 0-2.02 2.023 2 2 0 0 0 2.02 2.02 2 2 0 0 0 2.02-2.02 2 2 0 0 0-2.02-2.023zm0 3.234c-.688 0-1.211-.524-1.211-1.211 0-.688.523-1.215 1.21-1.215.688 0 1.212.527 1.212 1.215 0 .687-.524 1.21-1.211 1.21zm0 0"/>
</svg>
